!!!COM: Music21
!!!OTL: reel_Sproggies
!!!OMV: reel_Sproggies
**kern
*clefG2
*k[f#]
*M4/4
=1
8eeL
8aJ
8aL
8gJ
8aL
8bJ
8ccL
8ddJ
=
8eeL
8aaJ
12aaL
12aa
12aaJ
8aaL
8ggJ
8eeL
8ddJ
=
8bL
8ccJ
8ccL
8aJ
8bL
8aJ
8gL
8aJ
=
8bL
8ddJ
8ggL
8aaJ
8cccL
8bbJ
8aaL
8ggJ
!!linebreak:original
=
8aaL
8aJ
8aL
8gJ
8aL
8bJ
8ccL
8ddJ
=
8eeL
8aaJ
12aaL
12aa
12aaJ
8aaL
8ggJ
8eeL
8ddJ
=
8ccL
8ddJ
12eeL
12ff#
12ggJ
8aaL
8bbJ
8bbL
8cccJ
=
8bbL
8aaJ
8ggL
8bbJ
12eeL
12ff#
12ggJ
8aaL
8bbJ
!!linebreak:original
=
8aaL
8aJ
8aL
8gJ
8aL
8bJ
8ccL
8ddJ
=
8eeL
8aaJ
12aaL
12aa
12aaJ
8aaL
8ggJ
8eeL
8ddJ
=
8ccL
8ccJ
8ccL
8ddJ
8eeL
8ggJ
8aaL
8bbJ
=
8cccL
8eeJ
12eeL
12ee
12eeJ
8bbL
8ggJ
8aaL
8bbJ
=
8aaL
8aJ
8aL
8gJ
8aL
8bJ
8ccL
8ddJ
!!linebreak:original
=
8eeL
8aaJ
12aaL
12aa
12aaJ
8aaL
8ggJ
8eeL
8ddJ
=
8ccL
8ddJ
12eeL
12ff#
12ggJ
8aaL
8bbJ
8bbL
8cccJ
=
8bbL
8aaJ
8ggL
8bbJ
12eeL
12ff#
12ggJ
8aaL
8bbJ
=
8aaL
8aaaJ
8aaaL
8gggJ
8aaaL
8gggJ
8eeeL
8dddJ
!!linebreak:original
=
8cccL
8aaJ
8aaL
8aaJ
8bbL
8aaJ
8ggL
8eeJ
=
8ddL
8eeJ
8ggL
8aaJ
8bbL
8ggJ
8aaL
8bbJ
=
8dddL
8ggJ
8aaL
8bbJ
8dddL
8gggJ
8fff#L
8gggJ
=
8gggL
8aaaJ
8aaaL
8gggJ
8aaaL
8gggJ
8eeeL
8dddJ
!!linebreak:original
=
4ccc
8cccL
8aaJ
8bbL
8aaJ
8ggL
8eeJ
=
8ddL
8eeJ
8ggL
8aaJ
8bbL
8ggJ
8aaL
8bbJ
=
8aaL
8ggJ
8eeL
8ddJ
8ddL
8aJ
8bL
8gJ
=
8aL
8aaaJ
8aaaL
8gggJ
8aaaL
8gggJ
8eeeL
8dddJ
!!linebreak:original
=
8cccL
8aaJ
8aaL
8aaJ
8bbL
8aaJ
8ggL
8eeJ
=
8ddL
8eeJ
8ggL
8aaJ
8bbL
8ggJ
8aaL
8bbJ
=
8dddL
8ggJ
8aaL
8bbJ
8dddL
8gggJ
8fff#L
8gggJ
=
8bbL
8cccJ
8bbL
8ggJ
4aa
12eeL
12ee
12ddJ
!!linebreak:original
=
8ff#L
8ddJ
8ccL
8gJ
8ddL
8bJ
8aL
8gJ
=
8aL
8bJ
8ccL
8ddJ
12eeL
12ff#
12ggJ
8aaL
8bbJ
=
8cccL
8bbJ
8aaL
8ggJ
12eeL
12ff#
12ggJ
8aaL
8bbJ
=
*-
